X: 8
T: Go to the Devil and Shake Yourself  v.2
P: piffero secondo b0011
O: Cushing
%R: jig
F: http://ancients.sudburymuster.org/mus/ssp/pdf/MacintosF.pdf
Z: 2019 John Chambers <jc:trillian.mit.edu>
M: 6/8
L: 1/8
K: D
z |\
AFF BAG | FGF FDF | AFF Fdc | dFG G2A |\
FFF BAG | FGF FDF | FGF cec | dFF F2 :|
|: z |\
fdF FEF | gBB B3  | gec cef | acc c3 |\
AFF BAG | FGF FDF | FGF cec | dFF F2 :|

% %sep 1 1 200
% %center - - - - - - - - - -
% Whatever we want at the bottom of each set belongs here.
